img/img_mouse_click.svg

<svg width="60" height="79" viewBox="0 0 60 79" fill="none" xmlns="http://www.w3.org/2000/svg">
<path d="M20.2105 33H16.7895C14.1443 33 12 35.0893 12 37.6667V44.3333C12 46.9107 14.1443 49 16.7895 49H20.2105C22.8557 49 25 46.9107 25 44.3333V37.6667C25 35.0893 22.8557 33 20.2105 33Z" fill="white" opacity="0.4"/>
<path d="M34.6875 26.5H25.3125C18.0638 26.5 12.1875 32.3763 12.1875 39.625V58.375C12.1875 65.6237 18.0638 71.5 25.3125 71.5H34.6875C41.9362 71.5 47.8125 65.6237 47.8125 58.375V39.625C47.8125 32.3763 41.9362 26.5 34.6875 26.5Z" stroke="white" stroke-width="4" stroke-linecap="round" stroke-linejoin="round"/>
<path d="M30 45.25L30 35.875" stroke="white" stroke-width="4" stroke-linecap="round" stroke-linejoin="round"/>
<path d="M29.5494 -7.5C13.9512 0.5 15.9511 13 24.9512 15C33.9512 17 42.9509 12.9954 42.9509 7.5C42.9509 4.65016 37.4511 3 32.9511 8.5C28.4511 14 28.7374 20.5131 29.5494 26.3038" stroke="white" stroke-width="4" stroke-linecap="round"/>
</svg>

<svg xmlns="http://www.w3.org/2000/svg" width="60" height="79" fill="none" xmlns:v="https://vecta.io/nano"><path d="M20.211 33H16.79C14.144 33 12 35.089 12 37.667v6.667C12 46.911 14.144 49 16.79 49h3.421c2.645 0 4.79-2.089 4.79-4.667v-6.667C25 35.089 22.856 33 20.211 33z" fill="#fff" opacity=".4"/><g stroke="#fff" stroke-width="4"><g stroke-linejoin="round"><path d="M34.688 26.5h-9.375a13.13 13.13 0 0 0-13.125 13.125v18.75A13.13 13.13 0 0 0 25.313 71.5h9.375a13.13 13.13 0 0 0 13.125-13.125v-18.75A13.13 13.13 0 0 0 34.688 26.5z"/><path d="M30 45.25v-9.375" stroke-linecap="round"/></g><path d="M29.549-7.5C13.951.5 15.951 13 24.951 15s18-2.005 18-7.5c0-2.85-5.5-4.5-10 1s-4.214 12.013-3.402 17.804" stroke-linecap="round"/></g></svg>
